X:1
T:Skyrim
T:Skyrim
T:An
%%score { 1 | 2 }
L:1/8
Q:1/4=100
M:4/4
K:C
V:1 treble nm="Piano" snm="Pno."
V:2 bass 
V:1
!p! D4 F2 E2 | CB, D6 | D4 F2 E2 | C2 B,6 | D4 F2 E2 | CB, D6 | D4 ^C4 | z4 z2!mp! A,2 | %8
 A,2 D4 F2 | F2 A,4 C2 | C2 G,4 C2 | (CD) B,4 G,2 | A,2 D4 A2 | A2 F4 A2 | G2 C4 G2 | G4 A2 d2 | %16
 (f2 e2) d2 c2 | B4 G2 B2 | (Bc) A6 | B4 A2 d2 | (f2 e2) d2 c2 | B4 G2 B2 | (Bc) A6 | A8 | %24
[K:F] DDDD DDDD | DD DE/F/ DDDD | DDDD DE/F/ DE/F/ | DDDD DDDD | DD DE/F/ DDDD | DDDD DE/F/ DE/F/ | %30
[M:3/4] D6 | G6 | F4 F2 | E6 | d6 | g6 | f6 | e2 e e2!f! f/e/ |[M:4/4] f2 f/e/ f2 e/f/[eg][cf] | %39
 [Ge] [Gd]2 d/c/ d2 d/c/d- | dc/d/ ef c d2 f/e/ | [df][df][df] [df]2 e/f/[eg][cf] | %42
 [Ge] [Gd]2 d/c/ d2 d/c/(d | d)c/d/ ef c [Ad]3 |[M:3/4][Q:1/4=90]!mp! f3/2e3/2 f3 | e2- e4 | %46
 f3 g- g2 | g3 a3/2e3/2 | f3/2e3/2 d3 | e2- e4 | f3 g- g<a | g3 c'3 |[M:4/4][Q:1/4=100] DDDD DDDD | %53
 DD DE/F/ DDDD | DDDD DE/F/ DE/F/ | DDDD DDDD | DD DE/F/ DDDD | DD D2 z2 DE | F4 FG (A2 | %59
 A2) Ac G4 | FE D4 DE | F4 FG (A2 | A2) Ac d4 | ce d4 de | f2 e2 d2 c2 | B2 A2 G4 | %66
 FA G4 z!f! f/e/ | f2 f/e/ f2 e/f/ gf | e d2 d/c/ d2 d/c/(d | d)c/d/ ef c d2 f/e/ | %70
 ff f/e/ f2 e/f/gf | e d2 d/c/ d2 d/c/(d | d)c/d/ ef c d3 | a3 a3 (a2 | a4) a3 (a | a2) a4 z d | %76
 a2 d a2 d3 | a2 z d a2 da | ad d3 f/a/d'/ z3/2 |] %79
V:2
 D,8 | G,8 | [A,,D,]8 | [G,,C,]8 | D,,A,, D,6 | G,,C, G,6 | [D,,D,]4 [A,,^C,E,A,]4 | z8 | %8
 D,,A,,D,A,, D,,A,,D,A,, | F,,C,F,C, F,,C,F,C, | C,,G,,C,G,, C,,G,,C,G,, | G,,D,G,D, G,,D,G,D, | %12
 D,,A,,D,A,, D,,A,,D,A,, | F,,C,F,C, F,,C,F,C, | C,,G,,C,G,, C,,G,,C,G,, | G,,D,G,D, G,,D,G,D, | %16
 D,,A,,D,F, A,C E2 | [G,,D,G,]8 | F,,C, F,6 | G,,D,G,D, G,,D,G,D, | D,,A,,D,F, A,C E2 | G,,D, G,6 | %22
 F,,C, F,6 | [A,,E,A,]8 |[K:F] [D,,D,]3 [B,,,B,,]3 ([C,,C,]2 | %25
 [C,,C,]) [G,,G,]3 [D,,D,]3 [B,,,B,,]- | [B,,,B,,]2 [C,,C,]3 [G,,G,]3 | %27
 [D,,D,]3 [B,,,B,,]3 ([C,,C,]2 | [C,,C,]) [G,,G,]3 [D,,D,]3 [B,,,B,,]- | %29
 [B,,,B,,]2 [C,,C,]3 [G,,G,]3 |[M:3/4] [D,,D,]>[D,,D,][D,,D,][D,,D,][D,,D,][D,,D,] | %31
 [D,,D,]>[D,,D,] [D,,D,][D,,D,][D,,D,][D,,D,] | %32
 [B,,,B,,]>[B,,,B,,][B,,,B,,][B,,,B,,] [B,,,B,,][B,,,B,,] | %33
 [C,,C,]>[C,,C,][C,,C,][C,,C,][C,,C,][C,,C,] | [D,,D,]>[D,,D,][D,,D,][D,,D,][D,,D,][D,,D,] | %35
 [D,,D,]>[D,,D,] [D,,D,][D,,D,][D,,D,][D,,D,] | %36
 [B,,,B,,]>[B,,,B,,][B,,,B,,][B,,,B,,] [B,,,B,,][B,,,B,,] | [C,,C,][C,,C,][C,,C,][C,,C,] z2 | %38
[M:4/4] [D,,D,] [D,A,D]2 [B,,,B,,] [B,,F,B,]2 ([C,,C,][C,G,C] | %39
 [C,G,C])[G,,G,] [G,DG]2 [D,,D,] [D,A,D]2 [B,,,B,,] | %40
 [B,,F,B,]2 [C,,C,] [C,G,C]2 [D,,D,] [D,A,D]2 | %41
 [D,,D,] [D,A,D]2 [B,,,B,,] [B,,F,B,]2 [C,,C,][C,G,C-] | %42
 [C,G,C][G,,G,] [G,DG]2 [D,,D,] [D,A,D]2 [B,,,B,,] | [B,,F,B,]2 [C,,C,] [C,G,C]2 [D,,A,,D,]3 | %44
[M:3/4] [D,,D,]>[D,,D,][D,,D,][D,,D,][D,,D,][D,,D,] | %45
 [C,,C,]>[C,,C,] [C,,C,][C,,C,] [C,,C,][C,,C,] | %46
 [B,,,B,,]>[B,,,B,,][B,,,B,,][B,,,B,,] [B,,,B,,][B,,,B,,] | %47
 [G,,G,]>[G,,G,][G,,G,][G,,G,][G,,G,][G,,G,] | [D,,D,]>[D,,D,][D,,D,][D,,D,][D,,D,][D,,D,] | %49
 [C,,C,]>[C,,C,][C,,C,][C,,C,][C,,C,][C,,C,] | %50
 [B,,,B,,]>[B,,,B,,][B,,,B,,][B,,,B,,] [B,,,B,,][B,,,B,,] | %51
 [C,,C,]>[C,,C,][C,,C,][C,,C,][C,,C,][C,,C,] | %52
[M:4/4] [D,,D,][D,,D,]/[D,,D,]/ [D,,D,]/[D,,D,]/ [B,,,B,,]3 ([C,,C,]2 | %53
 [C,,C,]) [G,,G,]3 [D,,D,][D,,D,]/[D,,D,]/ [D,,D,]/[D,,D,]/[B,,,B,,]- | %54
 [B,,,B,,]2 [C,,C,]3 [G,,G,]3 | [D,,D,][D,,D,]/[D,,D,]/ [D,,D,]/[D,,D,]/ [B,,,B,,]3 ([C,,C,]2 | %56
 [C,,C,]) [G,,G,]3 [D,,D,][D,,D,]/[D,,D,]/ [D,,D,]/[D,,D,]/[B,,,B,,]- | [B,,,B,,]2 [C,,C,]3 z3 | %58
 D,,A,,/D,/ F,/A,/D/A,/ F,/D,/A,,/F,,/ (F,,/A,,/C,/F,/ | %59
 A,/)C/F/C/ A,/F,/C,/A,,/ C,,/E,,/G,,/C,/ E,/G,/(C/G,/ | %60
 E,/)C,/G,,/E,,/ G,,/B,,/D,/G,/ B,/D/G/D/ B,/G,/D,/B,,/ | %61
 D,,/F,,/A,,/D,/ F,/A,/D/A,/ F,/D,/A,,/F,,/ (F,,/A,,/C,/F,/ | %62
 A,/)C/F/C/ A,/F,/C,/A,,/ C,,/E,,/G,,/C,/ E,/G,/(C/G,/ | %63
 E,/)C,/G,,/E,,/ G,,/B,,/D,/G,/ B,/D/G/D/ B,/G,/D,/B,,/ | %64
 D,,/F,,/A,,/D,/ F,/A,/D/A,/ F,/D,/A,,/F,,/ F,,/A,,/C,/F,/ | %65
 A,/C/F/C/ A,/F,/C,/A,,/ C,,/E,,/G,,/C,/ E,/G,/(C/G,/ | E,/)C,/G,,/E,,/ G,,3/4C,3/4G,3/4E3/4 G2 z | %67
 [D,,D,] [D,A,D]2 [B,,,B,,] [B,,F,B,]2 (([C,,C,][C,G,C] | %68
 [C,G,C]))[G,,G,] [G,DG]2 [D,,D,] [D,A,D]2 ([B,,,B,,] | %69
 [B,,F,B,]2) [C,,C,] [C,G,C]2 [D,,D,] [D,A,D]2 | %70
 [D,,D,] [D,A,D]2 [B,,,B,,] [B,,F,B,]2 ([C,,C,][C,G,C-] | %71
 [C,G,C])[G,,G,] [G,DG]2 [D,,D,] [D,A,D]2 ([B,,,B,,] | [B,,F,B,]2) [C,,C,] [C,G,C]2 [D,,A,,D,]3 | %73
 [D,,A,,D,]3 [D,,A,,D,]3 [D,,D,]2 | F,,/A,,/D,/ z/ z2 [D,,A,,D,]3 ([D,,D,] | %75
 [D,,D,]2) [D,,D,]2 z4 | [D,,D,]3 [D,,D,]3 ([D,,D,]2 | [D,,D,]4) [D,,D,]3 ([D,,D,] | %78
 [D,,D,]2) [D,,D,]3 D,,/A,,/ D,/ z3/2 |] %79

